X:2079
T:Oh what if the fowler my blackbird has taken 
C:Mrs Tom Kennaugh, Ballakaighen
O:Isle of Man
S:Traditional
Z:Clague collection
B:Kiaull Vannin #79 
N:Two versions combined. (Dorian, but CWPJ thinks Mixolydian more likely) Last 4 bars not repeated in first version.  See Kiaull Vannin for other details.
M:2/4 
L:1/8 
K:D 
A|A2 AB|d2 (d!3!ef)|e2 fd|(B2A) F|A2 AB|g2 fe|d2 B>B|A3|
f|gf ga|gf ed|e2 fg|a3 f|gf ga|gf ed|e2 fg|a3 f|
gf ga|gf ed|e2 fd|B2 A F|A2 AB|g2 fe|d2 B>B|A3||

